svgs/thin/objects-column.svg

<svg xmlns="http://www.w3.org/2000/svg" viewBox="0 0 448 512"><!--! Font Awesome Pro 6.6.0 by @fontawesome - https://fontawesome.com License - https://fontawesome.com/license (Commercial License) Copyright 2024 Fonticons, Inc. --><path d="M48 48C30.3 48 16 62.3 16 80l0 160c0 17.7 14.3 32 32 32l96 0c17.7 0 32-14.3 32-32l0-160c0-17.7-14.3-32-32-32L48 48zM0 80C0 53.5 21.5 32 48 32l96 0c26.5 0 48 21.5 48 48l0 160c0 26.5-21.5 48-48 48l-96 0c-26.5 0-48-21.5-48-48L0 80zM304 240c-17.7 0-32 14.3-32 32l0 160c0 17.7 14.3 32 32 32l96 0c17.7 0 32-14.3 32-32l0-160c0-17.7-14.3-32-32-32l-96 0zm-48 32c0-26.5 21.5-48 48-48l96 0c26.5 0 48 21.5 48 48l0 160c0 26.5-21.5 48-48 48l-96 0c-26.5 0-48-21.5-48-48l0-160zM144 336l-96 0c-17.7 0-32 14.3-32 32l0 64c0 17.7 14.3 32 32 32l96 0c17.7 0 32-14.3 32-32l0-64c0-17.7-14.3-32-32-32zM48 320l96 0c26.5 0 48 21.5 48 48l0 64c0 26.5-21.5 48-48 48l-96 0c-26.5 0-48-21.5-48-48l0-64c0-26.5 21.5-48 48-48zM304 48c-17.7 0-32 14.3-32 32l0 64c0 17.7 14.3 32 32 32l96 0c17.7 0 32-14.3 32-32l0-64c0-17.7-14.3-32-32-32l-96 0zM256 80c0-26.5 21.5-48 48-48l96 0c26.5 0 48 21.5 48 48l0 64c0 26.5-21.5 48-48 48l-96 0c-26.5 0-48-21.5-48-48l0-64z"/></svg>

<svg xmlns="http://www.w3.org/2000/svg" viewBox="0 0 448 512"><!--! Font Awesome Pro 6.4.0 by @fontawesome - https://fontawesome.com License - https://fontawesome.com/license (Commercial License) Copyright 2023 Fonticons, Inc. --><path d="M48 48C30.3 48 16 62.3 16 80V240c0 17.7 14.3 32 32 32h96c17.7 0 32-14.3 32-32V80c0-17.7-14.3-32-32-32H48zM0 80C0 53.5 21.5 32 48 32h96c26.5 0 48 21.5 48 48V240c0 26.5-21.5 48-48 48H48c-26.5 0-48-21.5-48-48V80zM304 240c-17.7 0-32 14.3-32 32V432c0 17.7 14.3 32 32 32h96c17.7 0 32-14.3 32-32V272c0-17.7-14.3-32-32-32H304zm-48 32c0-26.5 21.5-48 48-48h96c26.5 0 48 21.5 48 48V432c0 26.5-21.5 48-48 48H304c-26.5 0-48-21.5-48-48V272zM144 336H48c-17.7 0-32 14.3-32 32v64c0 17.7 14.3 32 32 32h96c17.7 0 32-14.3 32-32V368c0-17.7-14.3-32-32-32zM48 320h96c26.5 0 48 21.5 48 48v64c0 26.5-21.5 48-48 48H48c-26.5 0-48-21.5-48-48V368c0-26.5 21.5-48 48-48zM304 48c-17.7 0-32 14.3-32 32v64c0 17.7 14.3 32 32 32h96c17.7 0 32-14.3 32-32V80c0-17.7-14.3-32-32-32H304zM256 80c0-26.5 21.5-48 48-48h96c26.5 0 48 21.5 48 48v64c0 26.5-21.5 48-48 48H304c-26.5 0-48-21.5-48-48V80z"/></svg>
